packages/ui-icons/svg/Solid/unarchive.svg

<svg viewBox="0 0 1920 1920" xmlns="http://www.w3.org/2000/svg">
    <path d="M533.333 560v160H240l.008 453.33 209.066 213.34H1470.93l209.06-213.34L1680 720h-293.33V560h352c55.96 0 101.33 45.368 101.33 101.333v511.997h16c35.35 0 64 28.66 64 64V1856c0 35.35-28.65 64-64 64H64c-35.346 0-64-28.65-64-64v-618.67c0-35.34 28.654-64 64-64h16V661.333C80 605.368 125.369 560 181.333 560h352ZM960 0l376.57 376.569-113.14 113.137L1040 306.275v867.055H879.999l-.001-867.055-183.43 183.431-113.137-113.138L960 0Z"/>
</svg>

<svg viewBox="0 0 1920 1920" version="1.1" xmlns="http://www.w3.org/2000/svg">
    <path d="M533.333,560 L533.333,720 L240,720 L240.008,1173.33 L240.008,1173.33 L449.074,1386.67 L1470.93,1386.67 L1679.99,1173.33 L1680,720 L1386.67,720 L1386.67,560 L1738.67,560 C1794.63,560 1840,605.368 1840,661.333 L1840,661.333 L1840,1173.33 L1856,1173.33 C1891.35,1173.33 1920,1201.99 1920,1237.33 L1920,1856 C1920,1891.35 1891.35,1920 1856,1920 L64,1920 C28.6538,1920 0,1891.35 0,1856 L0,1237.33 C0,1201.99 28.6538,1173.33 64,1173.33 L80,1173.33 L80,661.333 C80,605.368 125.369,560 181.333,560 L533.333,560 Z M960,0 L1336.57,376.569 L1223.43,489.706 L1040,306.275 L1040,1173.33 L879.999,1173.33 L879.998,306.275 L696.568,489.706 L583.431,376.568 L960,0 Z" fill-rule="nonzero" stroke="none" stroke-width="1"/>
</svg>
